Flat-Remix-Dark/apps/scalable/preferences-desktop-accessibility.svg

<svg xmlns="http://www.w3.org/2000/svg" width="384pt" height="384pt" version="1.1" viewBox="0 0 384 384"> <g> <path style="fill:rgb(21.176%,48.235%,94.117%)" d="M 360.75 192 C 360.75 98.800781 285.199219 23.25 192 23.25 C 98.804688 23.25 23.25 98.800781 23.25 192 C 23.25 285.199219 98.804688 360.75 192 360.75 C 285.199219 360.75 360.75 285.199219 360.75 192 Z M 360.75 192"/> <path style="fill:rgb(100.000%,100.000%,100.000%);fill-opacity:0.2" d="M 192 23.25 C 98.800781 23.25 23.25 98.800781 23.25 192 C 23.285156 193.5 23.339844 194.996094 23.414062 196.496094 C 25.144531 104.601562 100.09375 30.992188 192 30.921875 C 283.40625 30.976562 358.148438 103.800781 360.582031 195.175781 C 360.648438 194.117188 360.703125 193.058594 360.75 192 C 360.75 98.800781 285.195312 23.25 192 23.25 Z M 192 23.25"/> <path style="fill:rgb(0%,0%,0%);fill-opacity:0.2" d="M 192 360.75 C 98.800781 360.75 23.25 285.199219 23.25 192 C 23.285156 190.5 23.339844 189.003906 23.414062 187.503906 C 25.144531 279.398438 100.09375 353.007812 192 353.078125 C 283.40625 353.023438 358.148438 280.199219 360.582031 188.824219 C 360.648438 189.882812 360.703125 190.941406 360.75 192 C 360.75 285.199219 285.195312 360.75 192 360.75 Z M 192 360.75"/> <path style="fill:rgb(0%,0%,0%);fill-opacity:0.2" d="M 196.667969 104.625 C 188.195312 104.625 181.328125 111.492188 181.328125 119.964844 C 181.328125 128.4375 188.195312 135.308594 196.667969 135.308594 C 205.140625 135.308594 212.011719 128.4375 212.011719 119.964844 C 212.011719 111.492188 205.140625 104.625 196.667969 104.625 Z M 119.964844 142.976562 L 119.964844 158.316406 L 173.660156 158.316406 L 173.660156 288.714844 L 189 288.714844 L 189 227.351562 L 204.339844 227.351562 L 204.339844 288.714844 L 219.679688 288.714844 L 219.679688 158.316406 L 273.375 158.316406 L 273.375 142.976562 Z M 119.964844 142.976562"/> <path style="fill:rgb(100.000%,100.000%,100.000%)" d="M 192 99.953125 C 183.527344 99.953125 176.660156 106.824219 176.660156 115.296875 C 176.660156 123.769531 183.527344 130.636719 192 130.636719 C 200.472656 130.636719 207.339844 123.769531 207.339844 115.296875 C 207.339844 106.824219 200.472656 99.953125 192 99.953125 Z M 115.296875 138.304688 L 115.296875 153.648438 L 168.988281 153.648438 L 168.988281 284.046875 L 184.332031 284.046875 L 184.332031 222.679688 L 199.671875 222.679688 L 199.671875 284.046875 L 215.011719 284.046875 L 215.011719 153.648438 L 268.703125 153.648438 L 268.703125 138.304688 Z M 115.296875 138.304688"/> </g> </svg>

<svg width="512" height="512" version="1.1" viewBox="0 0 384 384" xmlns="http://www.w3.org/2000/svg"><path d="m360.75 192c0-93.199-75.551-168.75-168.75-168.75-93.195 0-168.75 75.551-168.75 168.75 0 93.199 75.555 168.75 168.75 168.75 93.199 0 168.75-75.551 168.75-168.75z" fill="#357af0"/><g fill-opacity=".2"><path d="m192 23.25c-93.199 0-168.75 75.551-168.75 168.75 0.03516 1.5 0.08984 2.9961 0.16406 4.4961 1.7305-91.895 76.68-165.5 168.59-165.57 91.406 0.054687 166.15 72.879 168.58 164.25 0.06641-1.0586 0.12109-2.1172 0.16797-3.1758 0-93.199-75.555-168.75-168.75-168.75z" fill="#fff"/><path d="m192 360.75c-93.199 0-168.75-75.551-168.75-168.75 0.03516-1.5 0.08984-2.9961 0.16406-4.4961 1.7305 91.895 76.68 165.5 168.59 165.57 91.406-0.0547 166.15-72.879 168.58-164.25 0.0664 1.0586 0.12109 2.1172 0.16797 3.1758 0 93.199-75.555 168.75-168.75 168.75z"/><path d="m196.67 104.62c-8.4727 0-15.34 6.8672-15.34 15.34 0 8.4727 6.8672 15.344 15.34 15.344 8.4726 0 15.344-6.8711 15.344-15.344 0-8.4726-6.8711-15.34-15.344-15.34zm-76.703 38.352v15.34h53.695v130.4h15.34v-61.363h15.34v61.363h15.34v-130.4h53.695v-15.34z"/></g><path d="m192 99.953c-8.4727 0-15.34 6.8711-15.34 15.344 0 8.4726 6.8672 15.34 15.34 15.34s15.34-6.8672 15.34-15.34c0-8.4727-6.8672-15.344-15.34-15.344zm-76.703 38.352v15.344h53.691v130.4h15.344v-61.367h15.34v61.367h15.34v-130.4h53.691v-15.344z" fill="#fff"/></svg>
